src/pos-icons/auto-download.svg

<svg height="24" viewBox="0 0 24 24" width="24" xmlns="http://www.w3.org/2000/svg"><path d="m22 17v2h-11v-2zm-3-12.5v5h3l-5.5 5.5-5.5-5.5h3v-5zm-8.3 10.5h-1.9l-.7-2h-3.2l-.7 2h-1.9l3.2-9h2zm-3.05-3.35-1.15-3.65-1.15 3.65z"/></svg>

<?xml version="1.0" encoding="UTF-8"?><!DOCTYPE svg PUBLIC "-//W3C//DTD SVG 1.1//EN" "http://www.w3.org/Graphics/SVG/1.1/DTD/svg11.dtd"><svg xmlns="http://www.w3.org/2000/svg" xmlns:xlink="http://www.w3.org/1999/xlink" version="1.1" id="mdi-auto-download" width="24" height="24" viewBox="0 0 24 24"><path d="M22 17V19H11V17H22M19 4.5V9.5H22L16.5 15L11 9.5H14V4.5H19M10.7 15H8.8L8.1 13H4.9L4.2 15H2.3L5.5 6H7.5L10.7 15M7.65 11.65L6.5 8L5.35 11.65H7.65Z" /></svg>
